flaticon/hand-gestures/tap-99.svg

<svg xmlns="http://www.w3.org/2000/svg" width="32" height="32" viewBox="0 0 24 24">
    <path d="M7.878906 1.800781C7.878906 1.519531 7.761719 1.28125 7.601562 1.121094L6.761719.28125C6.398438-.078125 5.761719-.078125 5.398438.28125L.960938 4.71875.121094 7.761719 3.121094 6.960938 7.601562 2.480469C7.761719 2.320312 7.878906 2.078125 7.878906 1.800781zM2.71875 6.238281L1.238281 6.640625 1.640625 5.160156 4.660156 2.140625 5.742188 3.21875zM7.039062 1.921875L6.304688 2.652344 5.226562 1.574219 5.960938.839844C6.039062.761719 6.121094.761719 6.199219.839844L7.039062 1.679688C7.078125 1.71875 7.078125 1.761719 7.078125 1.800781 7.078125 1.839844 7.078125 1.878906 7.039062 1.921875zM22.078125 8.398438C21.71875 8.398438 21.359375 8.519531 21.078125 8.761719L21.078125 8.398438C21.078125 7.441406 20.320312 6.398438 19.28125 6.398438 18.921875 6.398438 18.558594 6.519531 18.28125 6.761719 18.28125 5.839844 17.480469 4.800781 16.480469 4.800781 16.121094 4.800781 15.761719 4.921875 15.480469 5.160156L15.480469 2C15.480469 1.039062 14.71875 0 13.679688 0 12.640625 0 11.878906 1.039062 11.878906 2L11.878906 10.480469C11.519531 9.71875 11.039062 9 10.558594 8.519531 9.921875 7.878906 8.640625 7.839844 7.921875 8.441406 7.71875 8.640625 7.039062 9.359375 7.960938 10.640625 8.800781 11.839844 9.480469 14.480469 9.480469 16 9.480469 19.199219 11.558594 20.640625 12.28125 21.039062L12.28125 23.601562C12.28125 23.839844 12.441406 24 12.679688 24 12.921875 24 13.078125 23.839844 13.078125 23.601562L13.078125 20.800781C13.078125 20.640625 13 20.519531 12.839844 20.441406 12.71875 20.398438 10.28125 19.238281 10.28125 16 10.28125 14.519531 9.640625 11.601562 8.601562 10.160156 8.320312 9.800781 8.078125 9.320312 8.441406 9.039062 8.839844 8.71875 9.640625 8.71875 10 9.078125 11 10.078125 11.878906 12.199219 11.878906 13.199219 11.878906 13.441406 12.039062 13.601562 12.28125 13.601562 12.519531 13.601562 12.679688 13.441406 12.679688 13.199219L12.679688 2C12.679688 1.441406 13.121094.800781 13.679688.800781 14.238281.800781 14.679688 1.441406 14.679688 2L14.679688 10.800781C14.679688 11.039062 14.839844 11.199219 15.078125 11.199219 15.320312 11.199219 15.480469 11.039062 15.480469 10.800781L15.480469 6.800781C15.480469 6.238281 15.921875 5.601562 16.480469 5.601562 17.039062 5.601562 17.480469 6.238281 17.480469 6.800781L17.480469 11.199219C17.480469 11.441406 17.640625 11.601562 17.878906 11.601562 18.121094 11.601562 18.28125 11.441406 18.28125 11.199219L18.28125 8.398438C18.28125 7.839844 18.71875 7.199219 19.28125 7.199219 19.839844 7.199219 20.28125 7.839844 20.28125 8.398438L20.28125 10.320312C20.28125 10.359375 20.28125 10.359375 20.28125 10.398438L20.28125 12C20.28125 12.238281 20.441406 12.398438 20.679688 12.398438 20.917969 12.398438 21.078125 12.238281 21.078125 12L21.078125 10.320312C21.121094 9.800781 21.558594 9.199219 22.078125 9.199219 22.640625 9.199219 23.078125 9.839844 23.078125 10.398438L23.078125 16C23.078125 19.039062 23.078125 19.039062 21.960938 20.558594 21.878906 20.640625 21.878906 20.761719 21.878906 20.839844L21.878906 23.601562C21.878906 23.839844 22.039062 24 22.28125 24 22.519531 24 22.679688 23.800781 22.679688 23.601562L22.679688 20.921875C23.878906 19.320312 23.878906 19.121094 23.878906 16L23.878906 10.398438C23.878906 9.441406 23.121094 8.398438 22.078125 8.398438zM22.078125 8.398438"/>
    <path d="M17.878906 20.398438C18.121094 20.398438 18.28125 20.238281 18.28125 20 18.28125 19.761719 18.121094 19.601562 17.878906 19.601562L16.679688 19.601562C16.441406 19.601562 16.28125 19.761719 16.28125 20 16.28125 20.238281 16.441406 20.398438 16.679688 20.398438zM18.28125 21.199219L16.28125 21.199219C16.039062 21.199219 15.878906 21.359375 15.878906 21.601562 15.878906 21.839844 16.039062 22 16.28125 22L18.28125 22C18.519531 22 18.679688 21.839844 18.679688 21.601562 18.679688 21.359375 18.519531 21.199219 18.28125 21.199219zM18.28125 21.199219"/>
</svg>

<svg xmlns="http://www.w3.org/2000/svg" width="32" height="32" viewBox="0 0 24 24">
    <path d="M7.879 1.8a.96.96 0 0 0-.277-.679l-.84-.84a.997.997 0 0 0-1.364 0L.961 4.72.12 7.762l3-.801 4.48-4.48a.967.967 0 0 0 .278-.68zm-5.16 4.438l-1.48.403.402-1.48 3.02-3.02 1.081 1.078zm4.32-4.316l-.734.73-1.078-1.078L5.96.84c.078-.078.16-.078.238 0l.84.84c.04.039.04.082.04.12 0 .04 0 .079-.04.122zm0 0M22.078 8.398c-.36 0-.719.122-1 .364v-.364c0-.957-.758-2-1.797-2-.36 0-.722.122-1 .364 0-.922-.8-1.961-1.8-1.961-.36 0-.72.12-1 .36V2c0-.96-.762-2-1.801-2-1.04 0-1.801 1.04-1.801 2v8.48c-.36-.761-.84-1.48-1.32-1.96-.637-.641-1.918-.68-2.637-.079-.203.2-.883.918.039 2.2C8.8 11.84 9.48 14.48 9.48 16c0 3.2 2.078 4.64 2.8 5.04v2.562c0 .238.16.398.399.398.242 0 .398-.16.398-.398V20.8c0-.16-.078-.281-.238-.36-.121-.043-2.559-1.203-2.559-4.441 0-1.48-.64-4.398-1.68-5.84-.28-.36-.523-.84-.16-1.12.399-.321 1.2-.321 1.559.038 1 1 1.879 3.121 1.879 4.121 0 .242.16.403.402.403.239 0 .399-.16.399-.403V2c0-.559.441-1.2 1-1.2.558 0 1 .641 1 1.2v8.8c0 .24.16.4.398.4.242 0 .402-.16.402-.4v-4c0-.562.442-1.198 1-1.198.56 0 1 .636 1 1.199v4.398c0 .242.16.403.399.403.242 0 .402-.16.402-.403V8.4c0-.56.438-1.2 1-1.2.559 0 1 .64 1 1.2V12c0 .238.16.398.399.398.238 0 .398-.16.398-.398v-1.68c.043-.52.48-1.12 1-1.12.563 0 1 .64 1 1.198V16c0 3.04 0 3.04-1.117 4.559-.082.082-.082.203-.082.28v2.763c0 .238.16.398.402.398a.4.4 0 0 0 .399-.398v-2.68c1.199-1.602 1.199-1.8 1.199-4.922v-5.602c0-.957-.758-2-1.8-2zm0 0"/>
    <path d="M17.879 20.398c.242 0 .402-.16.402-.398 0-.238-.16-.398-.402-.398h-1.2c-.238 0-.398.16-.398.398 0 .238.16.398.399.398zm0 0M18.281 21.2h-2c-.242 0-.402.16-.402.402 0 .238.16.398.402.398h2c.239 0 .399-.16.399-.398 0-.243-.16-.403-.399-.403zm0 0"/>
</svg>
